dist/img/logo.svg

<svg width="266" height="41" viewBox="0 0 266 41" fill="none" xmlns="http://www.w3.org/2000/svg">
<path fill-rule="evenodd" clip-rule="evenodd" d="M39.1525 0.661621H50.0276L25.4787 24.2684L41.5006 40.3174H31.0627L15.8625 24.2684L39.1525 0.661621ZM46.13 9.20264H79.0798V40.505H46.13V9.20264ZM54.3674 15.4631V34.2445H70.8424V15.4631H54.3674ZM84.0233 9.20334H92.4804L99.7294 28.9864L106.978 9.20334H115.435L122.684 28.9864L129.933 9.20334H138.39L126.913 40.5057H118.456L111.207 20.7226L103.958 40.5057H95.5008L84.0233 9.20334ZM151.662 9.20358H143.013V40.506H151.662V9.20358ZM19.7699 9.20334H11.2971L0 40.5057H8.47281L19.7699 9.20334ZM191.801 9.20334H183.328L178.838 21.6432L166.918 9.20334H156.379L172.187 24.8545H177.679L172.031 40.5057H180.504L191.801 9.20334Z" fill="#F05634"/>
<path d="M212.394 9.20337V11.6746H203.333V23.207H209.923V18.6764H206.628V16.2052H212.394V25.6783H200.862V9.20337H212.394Z" fill="white"/>
<path d="M214.467 19.9121C214.467 18.3195 214.989 16.9631 216.032 15.8428C217.075 14.7115 218.338 14.1458 219.821 14.1458C221.26 14.1458 222.496 14.6785 223.528 15.7439V14.1458H225.999V25.6783H223.528V24.0802C222.496 25.1456 221.26 25.6783 219.821 25.6783C218.338 25.6783 217.075 25.1181 216.032 23.9978C214.989 22.8666 214.467 21.5046 214.467 19.9121ZM216.938 19.9121C216.938 20.8237 217.257 21.6035 217.894 22.2515C218.542 22.8885 219.321 23.207 220.233 23.207C221.145 23.207 221.919 22.8885 222.556 22.2515C223.204 21.6035 223.528 20.8237 223.528 19.9121C223.528 19.0005 223.204 18.2261 222.556 17.5891C221.919 16.9411 221.145 16.6171 220.233 16.6171C219.321 16.6171 218.542 16.9411 217.894 17.5891C217.257 18.2261 216.938 19.0005 216.938 19.9121Z" fill="white"/>
<path d="M242.076 14.1458C242.306 14.1458 242.498 14.2282 242.652 14.393C242.817 14.5467 242.899 14.7389 242.899 14.9696V25.6783H240.428V16.6171H236.721V25.6783H234.25V16.6171H230.543V25.6783H228.072V14.1458H242.076Z" fill="white"/>
<path d="M246.679 15.8263C247.799 14.706 249.161 14.1458 250.764 14.1458C252.357 14.1458 253.713 14.706 254.834 15.8263C255.954 16.9466 256.514 18.303 256.514 19.8956C256.514 20.3349 256.47 20.7523 256.382 21.1477H247.684C247.837 21.5431 248.084 21.9055 248.425 22.235C249.062 22.883 249.836 23.207 250.748 23.207C251.659 23.207 252.439 22.883 253.087 22.235C253.175 22.1472 253.258 22.0593 253.334 21.9714H256.152C255.866 22.7073 255.427 23.3773 254.834 23.9814C253.713 25.1126 252.357 25.6783 250.764 25.6783C249.161 25.6783 247.793 25.1126 246.662 23.9814C245.542 22.8501 244.982 21.4882 244.982 19.8956C244.982 18.303 245.547 16.9466 246.679 15.8263ZM247.684 18.6764H253.812C253.658 18.2701 253.417 17.9021 253.087 17.5726C252.439 16.9356 251.659 16.6171 250.748 16.6171C249.836 16.6171 249.062 16.9356 248.425 17.5726C248.084 17.9021 247.837 18.2701 247.684 18.6764Z" fill="white"/>
<path d="M266 14.1458V16.6171H260.86L266 23.207V25.6783H257.763V23.207H263.084L257.763 16.6171V14.1458H266Z" fill="white"/>
</svg>

<svg width="266" height="41" fill="none" xmlns="http://www.w3.org/2000/svg"><path fill-rule="evenodd" clip-rule="evenodd" d="M39.153.662h10.875l-24.55 23.606 16.023 16.05H31.063l-15.2-16.05L39.153.662zm6.977 8.54h32.95v31.303H46.13V9.203zm8.237 6.261v18.782h16.475V15.463H54.367zm29.656-6.26h8.457l7.25 19.783 7.248-19.783h8.457l7.249 19.783 7.249-19.783h8.457l-11.477 31.303h-8.457l-7.249-19.783-7.249 19.783h-8.457L84.023 9.203zm67.639 0h-8.649v31.303h8.649V9.204zm-131.892 0h-8.473L0 40.506h8.473L19.77 9.203zm172.031 0h-8.473l-4.49 12.44-11.92-12.44h-10.539l15.808 15.652h5.492l-5.648 15.65h8.473l11.297-31.302z" fill="#F05634"/><path d="M212.394 9.203v2.472h-9.061v11.532h6.59v-4.53h-3.295v-2.472h5.766v9.473h-11.532V9.203h11.532zm2.073 10.709c0-1.592.522-2.949 1.565-4.07 1.043-1.13 2.306-1.696 3.789-1.696 1.439 0 2.675.532 3.707 1.598v-1.598h2.471v11.532h-2.471V24.08c-1.032 1.066-2.268 1.598-3.707 1.598-1.483 0-2.746-.56-3.789-1.68-1.043-1.131-1.565-2.493-1.565-4.086zm2.471 0c0 .912.319 1.692.956 2.34a3.215 3.215 0 002.339.955c.912 0 1.686-.319 2.323-.956a3.19 3.19 0 00.972-2.339c0-.912-.324-1.686-.972-2.323a3.135 3.135 0 00-2.323-.972c-.912 0-1.691.324-2.339.972-.637.637-.956 1.412-.956 2.323zm25.138-5.766c.23 0 .422.082.576.247a.755.755 0 01.247.577v10.708h-2.471v-9.06h-3.707v9.06h-2.471v-9.06h-3.707v9.06h-2.471V14.146h14.004zm4.603 1.68c1.12-1.12 2.482-1.68 4.085-1.68 1.593 0 2.949.56 4.07 1.68 1.12 1.12 1.68 2.477 1.68 4.07 0 .439-.044.856-.132 1.252h-8.698c.153.395.4.758.741 1.087a3.135 3.135 0 002.323.972 3.19 3.19 0 002.339-.972 4.93 4.93 0 00.247-.264h2.818a5.913 5.913 0 01-1.318 2.01c-1.121 1.132-2.477 1.697-4.07 1.697-1.603 0-2.971-.565-4.102-1.697-1.12-1.13-1.68-2.493-1.68-4.085 0-1.593.565-2.95 1.697-4.07zm1.005 2.85h6.128a3.106 3.106 0 00-.725-1.103 3.217 3.217 0 00-2.339-.956c-.912 0-1.686.319-2.323.956-.341.33-.588.697-.741 1.103zM266 14.146v2.471h-5.14l5.14 6.59v2.471h-8.237v-2.471h5.321l-5.321-6.59v-2.471H266z" fill="#fff"/></svg>
